!!!COM: Bach, Johann Sebastian
!!!CDT: 1685/3//-1750/7/28/
!!!OTL@@DE: Wie schoen leuchtet der Morgenstern
!!!OTL@EN: How bright appears the morning star
!!!AGN: 4-Part Chorale
!!!SCT: BH 323
!!!SCT: BWV 172
**harm	**root	**kern	**kern	**kern	**kern
!	!	!bass	!tenor	!alto	!soprno
*	*Iorgan	*Iorgan	*Iorgan	*Iorgan	*Iorgan
*M4/4	*M4/4	*M4/4	*M4/4	*M4/4	*M4/4
*met(c)	*met(c)	*met(c)	*met(c)	*met(c)	*met(c)
*MM56	*MM56	*MM56	*MM56	*MM56	*MM56
*k[f#]	*k[f#]	*k[f#]	*k[f#]	*k[f#]	*k[f#]
*G:	*G:	*G:	*G:	*G:	*G:
*>[A,A,B]	*>[A,A,B]	*>[A,A,B]	*>[A,A,B]	*>[A,A,B]	*>[A,A,B]
*>A	*>A	*>A	*>A	*>A	*>A
I	4FF	4G	4B	4d	4g
=1	=1	=1	=1	=1	=1
Vb	4CC	4F#	4A	4d	8dd
.	.	.	.	.	8cc
I	8FF	8G	8G	4d	8b
Vb	8CC	8F#	8A	.	8a
vi	4DD	4E	8B	8e	4g
.	.	.	8c	8f#	.
Ib	4FF	4BB	4d	4g	4dd
=2	=2	=2	=2	=2	=2
IV	4BB-	8C	8d	4g	4ee
.	.	8D	16c	.	.
.	.	.	16B	.	.
IVb	4BB-	8E	8c	4g	4ee
.	.	8F#	8c	.	.
I;	4FF;	4G;	4B;	4g;	4dd;
Vb	4CC	4F#	4d	4a	4dd
=3	=3	=3	=3	=3	=3
vib	4DD	4G	4d	4b	4ee
v/iii	4EE	4A	4c#	4a	4ff#
Ib	8FF	8B	8d	8g	4gg
V7b/V	8GG	8c#	8e	8a	.
V	8CC	8d	8f#	4a	4ff#
Vb	8CC	8F#	8A	.	.
=4	=4	=4	=4	=4	=4
vib	4DD	8G	8B	4g	4ee
.	.	8E	8e	.	.
V7/V	4GG	4A	4c#	4g	4ee
V;	4CC;	4D;	4d;	4f#;	4dd;
I	4FF	4G	4d	4g	4b
=5	=5	=5	=5	=5	=5
IV	4BB-	4C	8c	4g	4ee
.	.	.	8B	.	.
V	4CC	4D	4A	4f#	4dd
IVb	8BB-	8E	8e	8g	4cc
V7b	8CC	8F#	8d	8a	.
I	4FF	8G	4d	4g	4b
.	.	8C	.	.	.
=6	=6	=6	=6	=6	=6
V	2CC	2D	2d	4g	2a
.	.	.	.	4f#	.
I;	4FF;	4GG;	4d;	4g;	4g;
=:|!	=:|!	=:|!	=:|!	=:|!	=:|!
*>B	*>B	*>B	*>B	*>B	*>B
r	4r	4r	4r	4r	4r
=7	=7	=7	=7	=7	=7
Vb	2CC	2F#	2d	2a	2dd
I;	2FF;	2G;	2d;	2b;	2b;
=8	=8	=8	=8	=8	=8
V	2CC	2D	2d	2a	2dd
I;	2FF;	2GG;	2d;	2g;	2b;
!!linebreak: 2
=9	=9	=9	=9	=9	=9
I	4FF	8GG	4d	4g	4b
.	.	8AA	.	.	.
Ib	4FF	8BB	4d	4g	4b
.	.	8C	.	.	.
V	4CC	8D	4d	8f#	4a
.	.	8E	.	8e	.
Vb	4CC	8F#	8d	4d	4a
.	.	8D	8c	.	.
=10	=10	=10	=10	=10	=10
I	4FF	8G	8B	4d	4b
.	.	8A	8c	.	.
Ib	4FF	8B	4d	8d	4b
.	.	8c	.	8e	.
V	4CC	8d	4d	4f#	4a
.	.	8c	.	.	.
Vc	4CC	8B	4d	4f#	4a
.	.	8A	.	.	.
=11	=11	=11	=11	=11	=11
I	4FF	8G	4d	4g	4b
.	.	8F#	.	.	.
vi	4DD	8E	4e	4g	4b
.	.	8D	.	.	.
ii7b	4GG	8C	4e	4g	2a
.	.	8AA	.	.	.
V	4CC	4D	8d	4f#	.
.	.	.	8c	.	.
=12	=12	=12	=12	=12	=12
I;	2FF;	2GG;	2B;	2g;	2g;
vi	4DD	8EE	8e	4b	4gg
.	.	8GG	8d	.	.
viiob	4EE	8AA	4c	4a	4ff#
.	.	8BB	.	.	.
=13	=13	=13	=13	=13	=13
IV	4BB-	4C	8c	4g	4ee
.	.	.	8B	.	.
V	4CC	4D	4A	4f#	4dd
IVb	4BB-	8E	8G	4e	4cc
.	.	8F#	8A	.	.
I	8FF	8G	8B	4d	4b
Ib	8FF	8BB	8d	.	.
=14	=14	=14	=14	=14	=14
iib	4GG	8C	8.c	4e	2a
.	.	8AA	.	.	.
.	.	.	16B	.	.
V	4CC	4D	4A	4d	.
I;	4FF;	4GG;	4B;	4d;	4g;
==	==	==	==	==	==
*-	*-	*-	*-	*-	*-
!!chor2scor: -l 2 -o %b.pmx
!!!YEC: Copyright 1994, David Huron
!!!YEC: Changes/Additions 2001 by Craig Stuart Sapp
!!!YEN: United States of America
!!!SMA: 371 Bach Chorales, edited by Ludwig Erk, C.F. Peters
!!!PDT: 1850, 1865
!!!ONB: Harmony and Root analysis done manually
